src/lib/runemarks/svg/factions-chaos-bladeborn-skittershanks-clawpack.svg

<svg xmlns="http://www.w3.org/2000/svg" xml:space="preserve" fill-rule="evenodd" stroke-linejoin="round" stroke-miterlimit="2" clip-rule="evenodd" viewBox="0 0 300 300"><path fill-rule="nonzero" d="M217.025 5.413c-5.566.197-11.609.617-13.429.935-1.819.316-6.465.81-10.322 1.097-3.858.286-9.491.731-12.518.988-5.947.506-20.541 3.154-26.47 4.805-2.019.561-6.264 1.605-9.434 2.319-8.587 1.934-15.042 3.697-16.791 4.588-.855.434-4.504 1.8-8.107 3.032-12.52 4.282-27.772 11.259-37.114 16.98-2.395 1.466-4.99 3.017-5.766 3.447-5.369 2.972-14.824 8.917-16.351 10.281-1.008.902-2.821 2.139-4.026 2.75-1.206.611-2.342 1.352-2.526 1.65-.183.296-3.033 2.567-6.334 5.046s-6.421 5.042-6.935 5.694-2.101 2.19-3.53 3.416c-11.506 9.88-20.672 19.204-20.676 21.03-.006 2.143 6.33 5.089 12.839 5.969 1.441.195 3.989.695 5.661 1.112s5.683 1.223 8.911 1.792c3.229.569 7.403 1.485 9.277 2.037 4.611 1.355 14.586 3.926 19.394 4.998 2.161.481 4.756 1.31 5.766 1.84 1.008.53 2.778 1.136 3.931 1.343s3.394 1.015 4.98 1.792A97 97 0 0 0 93.483 117c1.73.678 4.001 1.763 5.046 2.413 1.046.648 2.758 1.537 3.805 1.975 10.408 4.349 22.689 18.595 29.981 34.783 1.201 2.666 2.411 5.142 2.688 5.504 2.219 2.885 7.737 21.805 9.114 31.25 4.054 27.792.987 40.355-8.441 34.585-1.008-.617-3.367-1.655-5.241-2.307-9.899-3.438-24.748-10.781-33.619-16.624-3.275-2.157-7.135-4.551-8.576-5.319-3.072-1.638-4.84-2.859-14.677-10.13-17.452-12.9-28.748-22.105-32.486-26.473-1.011-1.181-2.757-2.757-3.878-3.5-2.525-1.673-7.91-6.776-11.147-10.562-6.612-7.734-24.193-24.757-25.029-24.233-1.731 1.084-1.261 3.83 1.466 8.545 1.417 2.451 4.278 7.578 6.358 11.393s4.754 8.227 5.944 9.804c3.68 4.879 4.155 5.632 6.792 10.768 1.409 2.744 3.586 6.285 4.839 7.871s2.819 3.573 3.481 4.416 1.792 2.542 2.514 3.776c1.589 2.721 8.219 11.347 13.605 17.703a460 460 0 0 1 7.257 8.811c5.226 6.559 26.967 27.67 32.341 31.403 1.73 1.202 4.325 3.302 5.766 4.666 3.616 3.423 12.761 10.132 16.132 11.836.929.47 2.239 1.356 2.911 1.971s2.087 1.476 3.145 1.913c2.665 1.102 6.929 3.501 11.036 6.211 1.907 1.258 4.646 2.703 6.089 3.212 1.441.509 6.353 2.723 10.915 4.921 4.563 2.197 8.926 4.145 9.698 4.329s2.035.655 2.808 1.044c.774.389 5.256 1.905 9.959 3.367 4.704 1.463 9.967 3.214 11.696 3.891s4.325 1.39 5.766 1.582c1.442.193 3.967.798 5.612 1.346 13.828 4.605 16.323 1.596 9.588-11.567-.958-1.874-2.134-4.92-2.611-6.768-.478-1.849-1.42-4.798-2.094-6.552-3.195-8.317-7.804-26.708-8.616-34.378l-1.127-10.658c-.644-6.101-.305-22.059.627-29.44.846-6.706 5.745-21.063 9.299-27.256q1.722-3 3.391-6.029c.707-1.297 2.203-3.42 3.325-4.717s3.259-3.913 4.75-5.813c6.855-8.735 25.006-23.375 35.55-28.675 5.183-2.513 7.243-3.587 9.296-4.673l-3.007 1.451c1.938-1.011 4.322-1.777 6.106-1.961l2.927-.301 1.6 2.208c.944 1.303 1.702 3.102 1.852 4.392.348 3.008 1.207 9.805 2.265 17.909 1.045 8.016 1.188 32.985.227 39.836-.324 2.307-.953 7.72-1.4 12.031-.446 4.31-1.054 8.91-1.35 10.221s-.75 4.036-1.008 6.053c-.798 6.241-6.542 31.983-9.942 44.554a571 571 0 0 0-2.902 11.268c-.739 3.026-1.945 6.802-2.681 8.387-3.931 8.468.485 9.974 6.107 2.084 1.297-1.82 3.184-4.246 4.193-5.391s2.307-2.868 2.883-3.83c.577-.961 2.383-3.699 4.014-6.085 2.604-3.807 5.567-9.385 10.936-20.585 7.184-14.988 11.059-25.92 19.325-54.513 2.638-9.128 6.946-30.672 9.485-47.437 1.537-10.15 2.589-45.7 1.595-53.949-.332-2.76-.807-7.614-1.054-10.784-.708-9.094-3.143-18.548-7.998-31.065-3.645-9.396-6.047-9.573-12.258-.905-6.92 9.656-19.937 23.246-32.43 33.858-1.153.979-2.404 2.192-2.78 2.695-.729.976-13.63 10.286-15.828 11.421-.72.373-2.49 1.548-3.931 2.614-24.808 18.326-72.597 19.687-99.86 2.842-1.013-.625-3.136-1.792-4.717-2.59s-4.248-2.596-5.925-3.993-3.714-2.934-4.526-3.414c-4.528-2.674-3.652-9.822 1.531-12.503.868-.449 2.762-1.867 4.209-3.153s3.396-2.728 4.329-3.206c.935-.478 3.114-1.98 4.843-3.339 5.072-3.984 20.339-13.188 27.519-16.589 2.738-1.298 6.63-3.163 8.648-4.145 11.076-5.389 33.172-14.079 40.884-16.078 1.153-.299 3.394-.965 4.98-1.481 15.973-5.192 34.534-10.813 38.002-11.508 3.629-.728 11.359-4.187 11.099-4.968-.598-1.792-11.739-2.166-37.467-1.254zm-43.34 122.116c5.181 1.693 5.793 2.175 7.836 6.173 1.919 3.754-9.208 21.189-14.655 22.965-3.392 1.106-7.117-1.397-9.511-6.392-.691-1.442-1.956-3.683-2.81-4.98-1.88-2.854-5.238-9.801-5.238-10.837 0-6.514 13.718-10.412 24.379-6.929z"/></svg>

<?xml version="1.0" encoding="UTF-8" standalone="no"?>
<!DOCTYPE svg PUBLIC "-//W3C//DTD SVG 1.1//EN" "http://www.w3.org/Graphics/SVG/1.1/DTD/svg11.dtd">
<svg width="100%" height="100%" viewBox="0 0 300 300" version="1.1" xmlns="http://www.w3.org/2000/svg" xmlns:xlink="http://www.w3.org/1999/xlink" xml:space="preserve" xmlns:serif="http://www.serif.com/" style="fill-rule:evenodd;clip-rule:evenodd;stroke-linejoin:round;stroke-miterlimit:2;">
    <path d="M217.025,5.413C211.459,5.61 205.416,6.03 203.596,6.348C201.777,6.664 197.131,7.158 193.274,7.445C189.416,7.731 183.783,8.176 180.756,8.433C174.809,8.939 160.215,11.587 154.286,13.238C152.267,13.799 148.022,14.843 144.852,15.557C136.265,17.491 129.81,19.254 128.061,20.145C127.206,20.579 123.557,21.945 119.954,23.177C107.434,27.459 92.182,34.436 82.84,40.157C80.445,41.623 77.85,43.174 77.074,43.604C71.705,46.576 62.25,52.521 60.723,53.885C59.715,54.787 57.902,56.024 56.697,56.635C55.491,57.246 54.355,57.987 54.171,58.285C53.988,58.581 51.138,60.852 47.837,63.331C44.536,65.81 41.416,68.373 40.902,69.025C40.388,69.677 38.801,71.215 37.372,72.441C25.866,82.321 16.7,91.645 16.696,93.471C16.69,95.614 23.026,98.56 29.535,99.44C30.976,99.635 33.524,100.135 35.196,100.552C36.868,100.969 40.879,101.775 44.107,102.344C47.336,102.913 51.51,103.829 53.384,104.381C57.995,105.736 67.97,108.307 72.778,109.379C74.939,109.86 77.534,110.689 78.544,111.219C79.552,111.749 81.322,112.355 82.475,112.562C83.628,112.769 85.869,113.577 87.455,114.354C89.04,115.131 91.753,116.322 93.483,117C95.213,117.678 97.484,118.763 98.529,119.413C99.575,120.061 101.287,120.95 102.334,121.388C112.742,125.737 125.023,139.983 132.315,156.171C133.516,158.837 134.726,161.313 135.003,161.675C137.222,164.56 142.74,183.48 144.117,192.925C148.171,220.717 145.104,233.28 135.676,227.51C134.668,226.893 132.309,225.855 130.435,225.203C120.536,221.765 105.687,214.422 96.816,208.579C93.541,206.422 89.681,204.028 88.24,203.26C85.168,201.622 83.4,200.401 73.563,193.13C56.111,180.23 44.815,171.025 41.077,166.657C40.066,165.476 38.32,163.9 37.199,163.157C34.674,161.484 29.289,156.381 26.052,152.595C19.44,144.861 1.859,127.838 1.023,128.362C-0.708,129.446 -0.238,132.192 2.489,136.907C3.906,139.358 6.767,144.485 8.847,148.3C10.927,152.115 13.601,156.527 14.791,158.104C18.471,162.983 18.946,163.736 21.583,168.872C22.992,171.616 25.169,175.157 26.422,176.743C27.675,178.329 29.241,180.316 29.903,181.159C30.565,182.002 31.695,183.701 32.417,184.935C34.006,187.656 40.636,196.282 46.022,202.638C48.477,205.545 50.897,208.482 53.279,211.449C58.505,218.008 80.246,239.119 85.62,242.852C87.35,244.054 89.945,246.154 91.386,247.518C95.002,250.941 104.147,257.65 107.518,259.354C108.447,259.824 109.757,260.71 110.429,261.325C111.101,261.94 112.516,262.801 113.574,263.238C116.239,264.34 120.503,266.739 124.61,269.449C126.517,270.707 129.256,272.152 130.699,272.661C132.14,273.17 137.052,275.384 141.614,277.582C146.177,279.779 150.54,281.727 151.312,281.911C152.084,282.095 153.347,282.566 154.12,282.955C154.894,283.344 159.376,284.86 164.079,286.322C168.783,287.785 174.046,289.536 175.775,290.213C177.504,290.89 180.1,291.603 181.541,291.795C182.983,291.988 185.508,292.593 187.153,293.141C200.981,297.746 203.476,294.737 196.741,281.574C195.783,279.7 194.607,276.654 194.13,274.806C193.652,272.957 192.71,270.008 192.036,268.254C188.841,259.937 184.232,241.546 183.42,233.876L182.293,223.218C181.649,217.117 181.988,201.159 182.92,193.778C183.766,187.072 188.665,172.715 192.219,166.522C193.367,164.522 194.498,162.513 195.61,160.493C196.317,159.196 197.813,157.073 198.935,155.776C200.057,154.479 202.194,151.863 203.685,149.963C210.54,141.228 228.691,126.588 239.235,121.288C244.418,118.775 246.478,117.701 248.531,116.615L245.524,118.066C247.462,117.055 249.846,116.289 251.63,116.105L254.557,115.804L256.157,118.012C257.101,119.315 257.859,121.114 258.009,122.404C258.357,125.412 259.216,132.209 260.274,140.313C261.319,148.329 261.462,173.298 260.501,180.149C260.177,182.456 259.548,187.869 259.101,192.18C258.655,196.49 258.047,201.09 257.751,202.401C257.455,203.712 257.001,206.437 256.743,208.454C255.945,214.695 250.201,240.437 246.801,253.008C245.943,256.179 244.638,261.25 243.899,264.276C243.16,267.302 241.954,271.078 241.218,272.663C237.287,281.131 241.703,282.637 247.325,274.747C248.622,272.927 250.509,270.501 251.518,269.356C252.527,268.211 253.825,266.488 254.401,265.526C254.978,264.565 256.784,261.827 258.415,259.441C261.019,255.634 263.982,250.056 269.351,238.856C276.535,223.868 280.41,212.936 288.676,184.343C291.314,175.215 295.622,153.671 298.161,136.906C299.698,126.756 300.75,91.206 299.756,82.957C299.424,80.197 298.949,75.343 298.702,72.173C297.994,63.079 295.559,53.625 290.704,41.108C287.059,31.712 284.657,31.535 278.446,40.203C271.526,49.859 258.509,63.449 246.016,74.061C244.863,75.04 243.612,76.253 243.236,76.756C242.507,77.732 229.606,87.042 227.408,88.177C226.688,88.55 224.918,89.725 223.477,90.791C198.669,109.117 150.88,110.478 123.617,93.633C122.604,93.008 120.481,91.841 118.9,91.043C117.319,90.245 114.652,88.447 112.975,87.05C111.298,85.653 109.261,84.116 108.449,83.636C103.921,80.962 104.797,73.814 109.98,71.133C110.848,70.684 112.742,69.266 114.189,67.98C115.636,66.694 117.585,65.252 118.518,64.774C119.453,64.296 121.632,62.794 123.361,61.435C128.433,57.451 143.7,48.247 150.88,44.846C153.618,43.548 157.51,41.683 159.528,40.701C170.604,35.312 192.7,26.622 200.412,24.623C201.565,24.324 203.806,23.658 205.392,23.142C221.365,17.95 239.926,12.329 243.394,11.634C247.023,10.906 254.753,7.447 254.493,6.666C253.895,4.874 242.754,4.5 217.026,5.412L217.025,5.413ZM173.685,127.529C178.866,129.222 179.478,129.704 181.521,133.702C183.44,137.456 172.313,154.891 166.866,156.667C163.474,157.773 159.749,155.27 157.355,150.275C156.664,148.833 155.399,146.592 154.545,145.295C152.665,142.441 149.307,135.494 149.307,134.458C149.307,127.944 163.025,124.046 173.686,127.529L173.685,127.529Z" style="fill-rule:nonzero;"/>
</svg>
